dist/img/logo/zigmus-logo.svg

<svg width="140" height="36" viewBox="0 0 140 36" fill="none" xmlns="http://www.w3.org/2000/svg">
<path d="M17.22 29.69V33.13H0L10.81 18.23H1.26V14.79H18.1L7.26 29.69H17.22Z" fill="white"/>
<path d="M21 33.1398V14.7598H25V33.1398H21Z" fill="white"/>
<path d="M48.26 24.3899C48.26 24.7199 48.26 25.0699 48.21 25.4499C47.81 30.1499 43.56 33.4499 38.61 33.4499C36.047 33.4958 33.5692 32.5294 31.7141 30.7603C29.8589 28.9913 28.7759 26.5622 28.7 23.9999C28.7578 21.4262 29.8311 18.9798 31.6858 17.1944C33.5405 15.409 36.026 14.4297 38.6 14.4699C40.2432 14.4664 41.862 14.8678 43.3131 15.6387C44.7643 16.4096 46.0031 17.5263 46.92 18.8899L43.5 20.8899C42.9561 20.0762 42.2301 19.4004 41.3796 18.9161C40.529 18.4318 39.5774 18.1524 38.6 18.0999C37.0299 18.0999 35.5242 18.7236 34.4139 19.8338C33.3037 20.944 32.68 22.4498 32.68 24.0199C32.68 25.59 33.3037 27.0958 34.4139 28.206C35.5242 29.3162 37.0299 29.9399 38.6 29.9399C40.96 29.9399 43.38 28.4099 43.95 26.4499H37.1V22.9099H48.21C48.24 23.4099 48.26 23.9999 48.26 24.3899Z" fill="white"/>
<path d="M70.88 33.1399H66.88V24.3599L61.26 30.8999L55.63 24.3599V33.1299H51.63V14.1299L61.26 24.9999L70.89 14.1399L70.88 33.1399Z" fill="white"/>
<path d="M75.36 25.7V14.79H79.36V25.7C79.36 26.8272 79.8078 27.9082 80.6048 28.7052C81.4018 29.5022 82.4828 29.95 83.61 29.95C84.7372 29.95 85.8182 29.5022 86.6152 28.7052C87.4122 27.9082 87.86 26.8272 87.86 25.7V14.79H91.86V25.7C91.86 30.4 88.64 33.47 83.67 33.47C78.7 33.47 75.36 30.4 75.36 25.7Z" fill="white"/>
<path d="M102.8 29.9201C104.99 29.9201 106.19 28.9201 106.19 27.9201C106.19 26.4601 104.19 26.0801 102.09 25.7101C99.78 25.3301 94.8 24.4801 94.8 20.0801C94.8 15.6801 98.8 14.5201 102.09 14.5201C104.723 14.4641 107.293 15.3347 109.35 16.9801L107.14 19.9801C105.641 18.8326 103.826 18.1729 101.94 18.0901C100.78 18.0901 98.77 18.4401 98.77 19.9001C98.77 21.2101 100.77 21.5101 102.41 21.9001C105.41 22.5301 110.15 22.9001 110.15 27.8301C110.15 31.6501 107.15 33.5401 102.84 33.5401C99.8144 33.6374 96.8592 32.6155 94.54 30.6701L96.65 27.6701C98.4297 29.0166 100.571 29.8002 102.8 29.9201Z" fill="white"/>
<path d="M136.59 20.5699C138.182 18.0655 139.206 15.2426 139.59 12.2999C139.59 12.2999 137.97 13.8499 138.16 13.2399C139.142 10.2197 139.349 7.00079 138.76 3.87988C138.39 14.1799 129.83 22.8799 118.46 24.7799C117.52 24.9399 117 25.8499 116.61 26.7799C116.222 27.7088 115.753 28.6022 115.21 29.4499C115.26 28.8149 115.226 28.1761 115.11 27.5499C114.799 25.8667 113.898 24.3493 112.57 23.2699C113.04 24.131 113.377 25.0581 113.57 26.0199C113.851 27.4707 113.79 28.9669 113.393 30.3902C112.995 31.8134 112.272 33.1246 111.28 34.2199C110.71 34.7699 110.23 35.2199 109.92 35.4299C109.61 35.6399 109.46 35.7499 109.22 35.8899L109.63 35.8299C111.584 35.442 113.464 34.7467 115.2 33.7699C119.71 31.1299 122.85 30.0499 126.81 29.6099C133.11 28.8999 138.01 25.9399 138.28 19.8999C138.19 19.9499 136.1 21.3399 136.59 20.5699Z" fill="white"/>
<path d="M116 25.42C116.45 24.42 116.87 23.5 117.85 23.42C121.51 22.8933 124.999 21.5241 128.04 19.42C128.695 18.4646 129.116 17.3684 129.269 16.2201C129.422 15.0717 129.302 13.9035 128.92 12.81C128.92 12.81 127.68 14.51 127.84 13.81C128.356 11.3778 128.332 8.86199 127.77 6.44C127.77 6.44 126.94 8.13 126.92 7.59C126.817 4.90878 126.036 2.29742 124.65 0C127.1 7.47 123.85 15.84 116.92 20.92C115.36 22.07 116 25.43 116 25.42Z" fill="#FF600E"/>
</svg>

<svg width="140" height="36" fill="none" xmlns="http://www.w3.org/2000/svg"><path d="M17.22 29.69v3.44H0l10.81-14.9H1.26v-3.44H18.1L7.26 29.69h9.96zM21 33.14V14.76h4v18.38h-4zm27.26-8.75c0 .33 0 .68-.05 1.06-.4 4.7-4.65 8-9.6 8A9.74 9.74 0 0128.7 24a9.75 9.75 0 019.9-9.53 10 10 0 018.32 4.42l-3.42 2a6.3 6.3 0 00-4.9-2.79 5.92 5.92 0 000 11.84c2.36 0 4.78-1.53 5.35-3.49H37.1v-3.54h11.11c.03.5.05 1.09.05 1.48zm22.62 8.75h-4v-8.78l-5.62 6.54-5.63-6.54v8.77h-4v-19L61.26 25l9.63-10.86-.01 19zm4.48-7.44V14.79h4V25.7a4.25 4.25 0 008.5 0V14.79h4V25.7c0 4.7-3.22 7.77-8.19 7.77-4.97 0-8.31-3.07-8.31-7.77zm27.44 4.22c2.19 0 3.39-1 3.39-2 0-1.46-2-1.84-4.1-2.21-2.31-.38-7.29-1.23-7.29-5.63s4-5.56 7.29-5.56a11.24 11.24 0 017.26 2.46l-2.21 3a9.22 9.22 0 00-5.2-1.89c-1.16 0-3.17.35-3.17 1.81 0 1.31 2 1.61 3.64 2 3 .63 7.74 1 7.74 5.93 0 3.82-3 5.71-7.31 5.71a12.3 12.3 0 01-8.3-2.87l2.11-3a11.188 11.188 0 006.15 2.25zm33.79-9.35a20.316 20.316 0 003-8.27s-1.62 1.55-1.43.94c.982-3.02 1.189-6.24.6-9.36-.37 10.3-8.93 19-20.3 20.9-.94.16-1.46 1.07-1.85 2a17.347 17.347 0 01-1.4 2.67 7.29 7.29 0 00-.1-1.9 7.203 7.203 0 00-2.54-4.28 9.74 9.74 0 011 2.75 9.525 9.525 0 01-2.29 8.2c-.57.55-1.05 1-1.36 1.21-.31.21-.46.32-.7.46l.41-.06a18.84 18.84 0 005.57-2.06c4.51-2.64 7.65-3.72 11.61-4.16 6.3-.71 11.2-3.67 11.47-9.71-.09.05-2.18 1.44-1.69.67z" fill="#fff"/><path d="M116 25.42c.45-1 .87-1.92 1.85-2a23.891 23.891 0 0010.19-4 7.384 7.384 0 00.88-6.61s-1.24 1.7-1.08 1a16.998 16.998 0 00-.07-7.37s-.83 1.69-.85 1.15A15.873 15.873 0 00124.65 0c2.45 7.47-.8 15.84-7.73 20.92-1.56 1.15-.92 4.51-.92 4.5z" fill="#FF600E"/></svg>
